public/avatar/hat/89.svg

<svg xmlns:xlink="http://www.w3.org/1999/xlink" height="92.9" width="100.7" xmlns="http://www.w3.org/2000/svg"><use height="24.9" transform="translate(22 39.05)" width="34.3" xlink:href="#a"/><defs><g id="a"><path d="m2.9 6.9.85-.25q4.45 0 5.5 1.05l.85 1.4 1.05 2.85q.1 1.1-.75 1.1-5.75-3.45-7.8-4.4-2.45 4.3-3.35 4.3-1.4 0-2.45-3l-1.7 1q-.5 0-.9-.55-.35-.6-.75-.6l-4.6 1.95q-.8 0-.8-.75 1.65-3.95 2.25-3.95.75 0 .75.75L-3 7.55.8 8q1-1.1 2.1-1.1m4.55 1.6q.35.1.9.6l-.95-.65.05.05M-.9 10.85l.95-1.8h-1.7l.75 1.8" fill="#2c2833" fill-opacity=".251" fill-rule="evenodd" transform="translate(16.65 10.7)"/><path d="m1 8.15-3.1-.6q-1-5.95 1.95-10.3 3-4.3 6.95-7.45Q9.15-.25 8.3 2.45q-1.1 3.5-2.7 4.5l-2.35.75L1 8.15m7.05-2.5 4.15-.6 1.3 2.75q.05.4 1.6 3.05.5 1.55.2 2.85l-2.55-2.15-4.7-5.9m-20 1.85 3.45.1-5 4.75 1.55-4.85" fill="#ab2000" fill-rule="evenodd" transform="translate(16.65 10.7)"/><path d="m-8.1 8.8-4.25-1.15q-2.05-.85-3.45-2.3l5.2-.25q2.35.65 3.6 1.25L-8.25 8.4l.15.4" fill="#c20" fill-rule="evenodd" transform="translate(16.65 10.7)"/><path d="m-9.25 4.7-.65 3.25q-1.1.65-1.85.65h-2.15q.4-1.4 1.9-2.4t2.75-1.5" fill="#c20" fill-rule="evenodd" transform="translate(16.65 10.7)"/><path d="M10.2 1.45q3.3.65 2.15 4.65-.6.8-3.8.7l-4.1-.2-13.05.5q-4.1.2-3.7-.85l1.6-1.65q1.35-1.45 4.8-2.65Q-2.4.65.65.45q3.4-.3 9.55 1" fill="#ab2000" fill-rule="evenodd" transform="translate(16.65 10.7)"/><path d="m9.1 2.7 3.95-.75h3.25q-1.25 2.35-2.15 3.1-1.5 1.25-2.7 1.1-1.55-.35-1.75-.8l-.75-3.2.15.55" fill="#ab2000" fill-rule="evenodd" transform="translate(16.65 10.7)"/><path d="m11 7.8-.9-1.2 2.45-1.15 4.6-.1L14.7 7.3q-.55.4-2.15.5H11" fill="#c20" fill-rule="evenodd" transform="translate(16.65 10.7)"/><path d="M12.05 6.95q-22.45 2.6-23.1 1.35l-.2-2.8q-.1-.85 11.4-1.75 11.5-.95 11.6-.15l.45 2.15q.2.95-.15 1.2" fill-rule="evenodd" transform="translate(16.65 10.7)"/><path d="M13.7-3.3q-1.65 4.8-2.6 5.9-1.9 2.1-2.75 2.2-2.9.45-3.6-.45L4.9 2.5l1.6-2q1.85-2.15 3.05-2.65Q11.5-2.9 13.7-3.3M-3.95-7.9q3.6 3.65 4.6 6.15.95 2.5-.2 4.7l-.95.8L-3.95-7.9" fill="#ab2000" fill-rule="evenodd" transform="translate(16.65 10.7)"/><path d="M-11.65-6.75q4.2.85 6.5 2.75l5.8 5.1Q-.8 2.5-1.8 3.05l-3.35.15q-1.1-.1-1.65-.8L-8.2.2q-1.3-1.95-3.45-6.95" fill="#ab2000" fill-rule="evenodd" transform="translate(16.65 10.7)"/><path d="m-14.55-1.9 3.55.15q2 .2 6.85 4.05-2.4 1.7-3.7 2.05l-1.35-.1-1.2-1-4.15-5.15" fill="#ab2000" fill-rule="evenodd" transform="translate(16.65 10.7)"/><path d="M-7 3.55-8.6 5.6l-2.95-.2Q-12.7 5-15.9 1.9l3.4-.1q1.35.3 5.5 1.75M3.35-.9 5.9.05q2.65 1.15 3.25 2.2 1 1.7 3.3 9.85-7.1-3.5-9.4-6Q1.6 4.55.95 1.75l-.4-2.5 2.8-.15" fill="#ab2000" fill-rule="evenodd" transform="translate(16.65 10.7)"/><path d="M-5 1.8v-.65l3.1.35q-.4 2.3-1.35 3.65-.95 1.35-8.05 4.5 1.35-3 2.65-4.65Q-7.3 3.3-5 1.8m7.2.25q.3.75-.35 3.2l-1.95 6.3q-.55-2-1.15-3L-1.6 2.4l.15-.65 3.65.3" fill="#ab2000" fill-rule="evenodd" transform="translate(16.65 10.7)"/><path d="M9.5 8.95Q7 4.35 5.75 3.1q-.7-.7-2.35-1.25L1.75 1.2Q1.35.65 1.5 0q.25-.9 1.85-.9L7.85.7q1.25 1 2.5 5.15l1.25 4.5-2.1-1.4" fill="#cc2600" fill-rule="evenodd" transform="translate(16.65 10.7)"/><path d="M.5-2.3q.85-1.75 6-6.5l-2 5.4Q7-5.15 6.6-4.3q-.35.9-2.85 4 .85 1.75.35 1.9L.25 1.1Q-.1 1.05-.1.05q0-1.15.6-2.35" fill="#cc2600" fill-rule="evenodd" transform="translate(16.65 10.7)"/><path d="m-2.15-.15-1-5.65L0-.4l-2.15.25m1.75 9L-.9 7.1l.15-7.4 2.1.5L.5 3.6Q.1 4.7-.4 8.85" fill="#cc2600" fill-rule="evenodd" transform="translate(16.65 10.7)"/><path d="M1.3 1.15 2.3 4-.2 2.1l1.5-.95M12.85-2.6l-3 3.1q-.4.3-1.1-.45l-.65-.8 2.7-1.5 2.05-.35M11.1 2.6l1.35-.25 2-.2L12.8 3.6l-1.7-1m-6.5-.65 2.15 5.4-4.25-6 2.1.6M-.05.6Q-5.7 4.9-6.7 5.25l-3.2 2.7Q-7.7 3.4-6.55 2.4q3.6-3.15 5-3.15.65 0 1.5.85v.5" fill="#cc2600" fill-rule="evenodd" transform="translate(16.65 10.7)"/><path d="M-2.15-.15-6.4-1.1l-3-4.5 3.15 1.55q1.65 1 4.1 3.9M-11.4-1.4l2.5 1-.15 1.3-3.5-1.8 1.15-.5m-3.3 3.15 3.5.85-.7 1.3-2.8-2.15" fill="#cc2600" fill-rule="evenodd" transform="translate(16.65 10.7)"/><path d="m-13.4 11.95 1.25-3-2.25-.25 1.65-1.6-3.4-1.65 3.75-.6-2.85-2.65 4.1-.35-1.5-1.45-1.9-2.3 2.75-.1q2.1.4 3.05 1.2-.2-1.1-.95-2.55l-1.95-3.4q2.25-.3 4.65 1.1 2.35 1.35 4.55 4.5L-3.4-4.6q-.9-3.4-.55-3.3.55.25 4.05 4.6l2.4-3.35Q4.25-8.9 6.8-10.2l1.3 8.55 1.9-.9q1-.6 3.7-.75l-2.2 5.4 2.25-.4 2.55.25-1.45 1.9-.6 1.6 2.9-.1-1.65 1.6-2 .85 1.6 3.05q.4 1.6.2 2.85l-1.45-.6" fill="none" stroke="#520000" stroke-linecap="round" stroke-linejoin="round" transform="translate(16.65 10.7)"/></g></defs></svg>

<?xml version="1.0" encoding="UTF-8" standalone="no"?>
<svg xmlns:xlink="http://www.w3.org/1999/xlink" height="92.9px" width="100.7px" xmlns="http://www.w3.org/2000/svg">
  <g transform="matrix(1.0, 0.0, 0.0, 1.0, 38.65, 49.75)">
    <use height="24.9" transform="matrix(1.0, 0.0, 0.0, 1.0, -16.65, -10.7)" width="34.3" xlink:href="#shape0"/>
  </g>
  <defs>
    <g id="shape0" transform="matrix(1.0, 0.0, 0.0, 1.0, 16.65, 10.7)">
      <path d="M2.9 6.9 L3.75 6.65 Q8.2 6.65 9.25 7.7 L10.1 9.1 11.15 11.95 Q11.25 13.05 10.4 13.05 4.65 9.6 2.6 8.65 0.15 12.95 -0.75 12.95 -2.15 12.95 -3.2 9.95 L-4.9 10.95 Q-5.4 10.95 -5.8 10.4 -6.15 9.8 -6.55 9.8 L-11.15 11.75 Q-11.95 11.75 -11.95 11.0 -10.3 7.05 -9.7 7.05 -8.95 7.05 -8.95 7.8 L-3.0 7.55 0.8 8.0 Q1.8 6.9 2.9 6.9 M7.45 8.5 Q7.8 8.6 8.35 9.1 L7.4 8.45 7.45 8.5 M-0.9 10.85 L0.05 9.05 -1.65 9.05 -0.9 10.85" fill="#2c2833" fill-opacity="0.2509804" fill-rule="evenodd" stroke="none"/>
      <path d="M1.0 8.15 L-2.1 7.55 Q-3.1 1.6 -0.15 -2.75 2.85 -7.05 6.8 -10.2 9.15 -0.25 8.3 2.45 7.2 5.95 5.6 6.95 L3.25 7.7 1.0 8.15" fill="#ab2000" fill-rule="evenodd" stroke="none"/>
      <path d="M8.05 5.65 L12.2 5.05 13.5 7.8 Q13.55 8.2 15.1 10.85 15.6 12.4 15.3 13.7 L12.75 11.55 8.05 5.65" fill="#ab2000" fill-rule="evenodd" stroke="none"/>
      <path d="M-11.95 7.5 L-8.5 7.6 -13.5 12.35 -11.95 7.5" fill="#ab2000" fill-rule="evenodd" stroke="none"/>
      <path d="M-8.1 8.8 L-12.35 7.65 Q-14.4 6.8 -15.8 5.35 L-10.6 5.1 Q-8.25 5.75 -7.0 6.35 L-8.25 8.4 -8.1 8.8" fill="#cc2200" fill-rule="evenodd" stroke="none"/>
      <path d="M-9.25 4.7 L-9.9 7.95 Q-11.0 8.6 -11.75 8.6 L-13.9 8.6 Q-13.5 7.2 -12.0 6.2 -10.5 5.2 -9.25 4.7" fill="#cc2200" fill-rule="evenodd" stroke="none"/>
      <path d="M10.2 1.45 Q13.5 2.1 12.35 6.1 11.75 6.9 8.55 6.8 L4.45 6.6 -8.6 7.1 Q-12.7 7.3 -12.3 6.25 L-10.7 4.6 Q-9.35 3.15 -5.9 1.95 -2.4 0.65 0.65 0.45 4.05 0.15 10.2 1.45" fill="#ab2000" fill-rule="evenodd" stroke="none"/>
      <path d="M9.1 2.7 L13.05 1.95 16.3 1.95 Q15.05 4.3 14.15 5.05 12.65 6.3 11.45 6.15 9.9 5.8 9.7 5.35 L8.95 2.15 9.1 2.7" fill="#ab2000" fill-rule="evenodd" stroke="none"/>
      <path d="M11.0 7.8 L10.1 6.6 12.55 5.45 17.15 5.35 14.7 7.3 Q14.15 7.7 12.55 7.8 L11.0 7.8" fill="#cc2200" fill-rule="evenodd" stroke="none"/>
      <path d="M12.05 6.95 Q-10.4 9.55 -11.05 8.3 L-11.25 5.5 Q-11.35 4.65 0.15 3.75 11.65 2.8 11.75 3.6 L12.2 5.75 Q12.4 6.7 12.05 6.95" fill="#000000" fill-rule="evenodd" stroke="none"/>
      <path d="M13.7 -3.3 Q12.05 1.5 11.1 2.6 9.2 4.7 8.35 4.8 5.45 5.25 4.75 4.35 L4.9 2.5 6.5 0.5 Q8.35 -1.65 9.55 -2.15 11.5 -2.9 13.7 -3.3" fill="#ab2000" fill-rule="evenodd" stroke="none"/>
      <path d="M-3.95 -7.9 Q-0.35 -4.25 0.65 -1.75 1.6 0.75 0.45 2.95 L-0.5 3.75 -3.95 -7.9" fill="#ab2000" fill-rule="evenodd" stroke="none"/>
      <path d="M-11.65 -6.75 Q-7.45 -5.9 -5.15 -4.0 L0.65 1.1 Q-0.8 2.5 -1.8 3.05 L-5.15 3.2 Q-6.25 3.1 -6.8 2.4 L-8.2 0.2 Q-9.5 -1.75 -11.65 -6.75" fill="#ab2000" fill-rule="evenodd" stroke="none"/>
      <path d="M-14.55 -1.9 L-11.0 -1.75 Q-9.0 -1.55 -4.15 2.3 -6.55 4.0 -7.85 4.35 L-9.2 4.25 -10.4 3.25 -14.55 -1.9" fill="#ab2000" fill-rule="evenodd" stroke="none"/>
      <path d="M-7.0 3.55 L-8.6 5.6 -11.55 5.4 Q-12.7 5.0 -15.9 1.9 L-12.5 1.8 Q-11.15 2.1 -7.0 3.55" fill="#ab2000" fill-rule="evenodd" stroke="none"/>
      <path d="M3.35 -0.9 L5.9 0.05 Q8.55 1.2 9.15 2.25 10.15 3.95 12.45 12.1 5.35 8.6 3.05 6.1 1.6 4.55 0.95 1.75 L0.55 -0.75 3.35 -0.9" fill="#ab2000" fill-rule="evenodd" stroke="none"/>
      <path d="M-5.0 1.8 L-5.0 1.15 -1.9 1.5 Q-2.3 3.8 -3.25 5.15 -4.2 6.5 -11.3 9.65 -9.95 6.65 -8.65 5.0 -7.3 3.3 -5.0 1.8" fill="#ab2000" fill-rule="evenodd" stroke="none"/>
      <path d="M2.2 2.05 Q2.5 2.8 1.85 5.25 L-0.1 11.55 Q-0.65 9.55 -1.25 8.55 L-1.6 2.4 -1.45 1.75 2.2 2.05" fill="#ab2000" fill-rule="evenodd" stroke="none"/>
      <path d="M9.5 8.95 Q7.0 4.35 5.75 3.1 5.05 2.4 3.4 1.85 L1.75 1.2 Q1.35 0.65 1.5 0.0 1.75 -0.9 3.35 -0.9 L7.85 0.7 Q9.1 1.7 10.35 5.85 L11.6 10.35 9.5 8.95" fill="#cc2600" fill-rule="evenodd" stroke="none"/>
      <path d="M0.5 -2.3 Q1.35 -4.05 6.5 -8.8 L4.5 -3.4 Q7.0 -5.15 6.6 -4.3 6.25 -3.4 3.75 -0.3 4.6 1.45 4.1 1.6 L0.25 1.1 Q-0.1 1.05 -0.1 0.05 -0.1 -1.1 0.5 -2.3" fill="#cc2600" fill-rule="evenodd" stroke="none"/>
      <path d="M-2.15 -0.15 L-3.15 -5.8 0.0 -0.4 -2.15 -0.15" fill="#cc2600" fill-rule="evenodd" stroke="none"/>
      <path d="M-0.4 8.85 L-0.9 7.1 -0.75 -0.3 1.35 0.2 0.5 3.6 Q0.1 4.7 -0.4 8.85" fill="#cc2600" fill-rule="evenodd" stroke="none"/>
      <path d="M1.3 1.15 L2.3 4.0 -0.2 2.1 1.3 1.15" fill="#cc2600" fill-rule="evenodd" stroke="none"/>
      <path d="M12.85 -2.6 L9.85 0.5 Q9.45 0.8 8.75 0.05 L8.1 -0.75 10.8 -2.25 12.85 -2.6" fill="#cc2600" fill-rule="evenodd" stroke="none"/>
      <path d="M11.1 2.6 L12.45 2.35 14.45 2.15 12.8 3.6 11.1 2.6" fill="#cc2600" fill-rule="evenodd" stroke="none"/>
      <path d="M4.6 1.95 L6.75 7.35 2.5 1.35 4.6 1.95" fill="#cc2600" fill-rule="evenodd" stroke="none"/>
      <path d="M-0.05 0.6 Q-5.7 4.9 -6.7 5.25 L-9.9 7.95 Q-7.7 3.4 -6.55 2.4 -2.95 -0.75 -1.55 -0.75 -0.9 -0.75 -0.05 0.1 L-0.05 0.6" fill="#cc2600" fill-rule="evenodd" stroke="none"/>
      <path d="M-2.15 -0.15 L-6.4 -1.1 -9.4 -5.6 -6.25 -4.05 Q-4.6 -3.05 -2.15 -0.15" fill="#cc2600" fill-rule="evenodd" stroke="none"/>
      <path d="M-11.4 -1.4 L-8.9 -0.4 -9.05 0.9 -12.55 -0.9 -11.4 -1.4" fill="#cc2600" fill-rule="evenodd" stroke="none"/>
      <path d="M-14.7 1.75 L-11.2 2.6 -11.9 3.9 -14.7 1.75" fill="#cc2600" fill-rule="evenodd" stroke="none"/>
      <path d="M-13.4 11.95 L-12.15 8.95 -14.4 8.7 -12.75 7.1 -16.15 5.45 -12.4 4.85 -15.25 2.2 -11.15 1.85 -12.65 0.4 -14.55 -1.9 -11.8 -2.0 Q-9.7 -1.6 -8.75 -0.8 -8.95 -1.9 -9.7 -3.35 L-11.65 -6.75 Q-9.4 -7.05 -7.0 -5.65 -4.65 -4.3 -2.45 -1.15 L-3.4 -4.6 Q-4.3 -8.0 -3.95 -7.9 -3.4 -7.65 0.1 -3.3 L2.5 -6.65 Q4.25 -8.9 6.8 -10.2 L8.1 -1.65 10.0 -2.55 Q11.0 -3.15 13.7 -3.3 L11.5 2.1 13.75 1.7 16.3 1.95 14.85 3.85 14.25 5.45 17.15 5.35 15.5 6.95 13.5 7.8 15.1 10.85 Q15.5 12.45 15.3 13.7 L13.85 13.1" fill="none" stroke="#520000" stroke-linecap="round" stroke-linejoin="round" stroke-width="1.0"/>
    </g>
  </defs>
</svg>
